!!!!SEGMENT: pl-sa--178-a-v-8--002_anonim--msza-gloria.krn
!!!cenid: 17xx:1645
!!!COM: Anonim
!!!COM-rismID: pe30004985
!!!CDT:
!!!CNT:
!!!OPR: Msza
!!!OTL: Gloria
!!!OMV: 002
!!!PDT:
!!!AGN: Sacred; Mass
!!!SMS-siglum: PL-SA
!!!SMS-shelfmark: 178/A V 8
!!!SMS-shelfwork: 001-002 M
!!!SMS-variant:
!!!SMS-altvar:
!!!NIFC-rismSourceID: 1001035884
!!!NIFC-rismChildID: 1001035884
!!!NIFC-islandoraID:
!!!URL-pdf-islandora:
!!!URL-scan: https://bc.bdsandomierz.pl/dlibra/publication/1513/edition/1481/content @EN{Scan in the Sandomierz Diocese Digital Library} @PL{Skany w portalu Cyfrowa Biblioteka Diecezjalna w Sandomierzu}
!!!ONB-nifc: UWAGA: części Mszy: 1. Kyrie, 2. Gloria, 3. Patrem, 4. Sanctus, 5. Agnus Dei
!!!AIN: 1 bass 1 organ 1 soprn 2 violn
!!!key: G
!!!OMD:
!!!OMD-mod: Adagio
**kern	**fba	**kern	**dynam	**kern	**dynam	**kern	**text	**kern	**text
*part5	*part5	*part4	*part4	*part3	*part3	*part2	*part2	*part1	*part1
*staff5	*	*staff4	*	*staff3	*	*staff2	*staff2	*staff1	*staff1
*I"Organo.	*	*I"Violino 2do.	*	*I"Violino Primo.	*	*I"Baſso	*	*I"Canto.	*
*mI"Organo	*	*mI"Violino II	*	*mI"Violino I	*	*mI"Basso	*	*mI"Soprano	*
*I'org	*	*I'vl II	*	*I'vl I	*	*I'B	*	*I'S	*
*ICklav	*	*ICstr	*	*ICstr	*	*ICvox	*	*ICvox	*
*Iorgan	*	*Ivioln	*	*Ivioln	*	*Ibass	*	*Isoprn	*
*clefF4	*	*clefG2	*	*clefG2	*	*clefF4	*	*clefC1	*
*	*	*	*	*	*	*	*	*mclefG2	*
*k[f#]	*	*k[f#]	*	*k[f#]	*	*k[f#]	*	*k[f#]	*
*G:	*	*G:	*	*G:	*	*G:	*	*G:	*
*M4/4	*	*M4/4	*	*M4/4	*	*M4/4	*	*M4/4	*
*met(C)	*	*met(C)	*	*met(C.)	*	*met(C)	*	*met(C)	*
=1	=1	=1	=1	=1	=1	=1	=1	=1	=1
!LO:TX:a:B:t=adagio:mod=	!	!LO:TX:a:B:t=adagio:mod=	!	!LO:TX:a:B:t=adagio:mod=	!	!LO:TX:a:B:t=adagio:mod=	!	!LO:TX:a:B:t=adagio:mod=	!
4.G\	.	4.gg 4.b 4.d/	.	4.gg 4.b 4.d 4.G/	.	4.G\	Glo-	4.dd\	Glo-
8G\	.	8gg 8b 8d/	.	8gg 8b 8d 8G/	.	8G\	-ri-	8b\	-ri-
4G\	.	4gg 4b 4d/	.	4gg 4b 4d 4G/	.	4G\	-a	4dd\	-a
!LO:MO:mod=4r;	!	!	!	!LO:MO:mod=4r;	!	!LO:MO:mod=4r;	!	!LO:MO:mod=4r;	!
4r	.	4r;	.	4r	.	4r	.	4r	.
=2	=2	=2	=2	=2	=2	=2	=2	=2	=2
!!!OMD-mod: Allegro
!LO:TX:a:B:t=allo:mod=	!	!LO:TX:a:B:t=allo:mod=	!	!LO:TX:a:B:t=allo:mod=.	!	!LO:TX:a:B:t=allo:mod=	!	!LO:TX:a:B:t=allo:mod=	!
!LO:SIC:s=8GL|	!	!	!	!	!	!	!	!	!
8G\L	.	8g/L	.	8g/L	.	8G\	in	8gg\	in
!LO:SIC:s=8DJ|	!	!	!	!	!	!	!	!	!
8D\J	.	8d/	.	8d/	.	8d\	ex-	8dd\	ex-
8BB|>/L	.	8B/	.	8B/	.	8B\	-cel-	8b\	-cel-
8D|>/J	.	8d/J	.	8d/J	.	8d\	-sis	8dd\	-sis
8BB|>/L	.	8B/L	.	8B/L	.	8B\	De-	8b\	De-
8GG|>/J	.	8G/J	.	8G/J	.	8G\	-o	8g\	-o
4r	.	4r	.	4r	.	4r	.	4r	.
!	!	!	!	!	!	!LO:LB:g=original	!	!	!
=3	=3	=3	=3	=3	=3	=3	=3	=3	=3
8G|>\L	.	8g/L	.	8g/L	.	8G\	et	8gg\	et
8D|>\J	.	8d/	.	8d/	.	8d\	in	8dd\	in
8BB|>/L	.	8B/	.	8B/	.	8B\	ter-	8b\	ter-
8D|>/J	.	8d/J	.	8d/J	.	8d\	-ra	8dd\	-ra
8C|>/L	.	8c/L	.	8c/L	.	8c\	pax	8cc\	pax
!	!	!	!	!	!	!LO:SIC:v:l:t=ho-	!LO:MO:mod=ho-	!	!
8E|>/J	.	8e/	.	8e/	.	8e\	h-	8ee\	ho-
8AA|>/L	.	8A/	.	8A/	.	8A\	-mi-	8a\	-mi-
!	!	!	!	!	!	!	!	!LO:LB:g=original	!
8C|>/J	.	8c/J	.	8c/J	.	16c\	-ni-	16cc\	-ni-
!	!	!	!	!	!	!	!LO:MO:mod=-bus	!	!LO:MO:mod=-bus
.	.	.	.	.	.	16c\	-b(us)	16cc\	-b(us)
=4	=4	=4	=4	=4	=4	=4	=4	=4	=4
!	!	!	!	!	!	!LO:SIC:s=(8B\L	!	!	!
8BB|>/L	.	8B/L	.	8B/L	.	8B\L	bo-	(8b\L	bo-
!	!	!	!	!LO:SIC:s=8d	!	!LO:SIC:s=8d\J)	!	!	!
8D|>/J	.	8d/	.	8d/J	.	8d\J	.	8dd\J)	.
!	!	!	!	!LO:SIC:s=8G	!	!LO:SIC:s=(8G\L	!	!	!
8GG|>/L	.	8G/	.	8G/L	.	8G\L	-nae	(8g\L	-nae
!	!	!	!	!	!	!LO:SIC:s=8B\J)	!	!	!
8BB|>/J	.	8B/J	.	8B/J	.	8B\J	.	8b\J)	.
!	!	!	!	!	!	!LO:SIC:s=(8A\L	!	!	!
8AA|>/L	.	8A/L	.	8A/L	.	8A\L	vo-	(8a\L	vo-
!	!	!	!	!	!	!LO:SIC:s=8c\J)	!	!	!
8C|>/J	.	8c/	.	8c/	.	8c\J	.	8cc\J)	.
!	!	!	!	!	!	!LO:SIC:s=(8F#\L	!	!	!
8FF#|>/L	.	8f#/	.	8f#/	.	8F#\L	-lun-	(8f#\L	-lun-
!	!	!	!	!	!	!LO:SIC:s=8A\J)	!	!	!
8AA|>/J	.	8A/J	.	8A/J	.	8A\J	.	8a\J)	.
!	!	!LO:LB:g=original	!	!	!	!	!	!	!
=5	=5	=5	=5	=5	=5	=5	=5	=5	=5
4GG/	.	4gg 4b 4d/	.	4gg 4b 4d 4G/	.	2G\	-ta-	2dd\	-ta-
4G\	.	4gg 4b 4d/	.	4gg 4b 4d 4G/	.	.	.	.	.
4G\	.	4gg 4b 4d/	.	4gg 4b 4d 4G/	.	4G\	-tis	4dd\	-tis
!	!	!	!	!	!	!LO:TX:a:t=vi:mod=	!	!	!
4r	.	4r	.	4r	.	4r	.	4r	.
!LO:LB:g=original	!	!	!	!LO:LB:g=original	!	!LO:LB:g=original	!	!	!
=6	=6	=6	=6	=6	=6	=6	=6	=6	=6
!	!	!	!	!	!	!LO:TX:a:t=De:mod=	!	!	!
4C/	.	4ee\	.	4ee\	.	4e\	vo-	4ee\	vo-
!	!	!	!	!	!	!	!LO:MO:mod=-lun-	!	!
4r	.	8cc\L	.	8cc\L	.	8c\L	-lu(n)-	8cc\L	-lun-
.	.	8a\J	.	8a\J	.	8A\J	.	8a\J	.
4GG/	.	4dd\	.	4dd\	.	4d\	-ta-	4dd\	-ta-
4r	.	8b\L	.	8b\L	.	8B\L	.	8b\L	.
.	.	8g\J	.	8g\J	.	8G\J	.	8g\J	.
=7	=7	=7	=7	=7	=7	=7	=7	=7	=7
!	!	!	!	!	!	!LO:MO:mod=2G	!	!	!
4G\	.	4gg 4b 4d/	.	4gg 4b 4d 4G/	.	4G\	.	2b\	.
!	!	!	!	!	!	!LO:MO:mod=.	!	!	!
4G\	.	4gg 4b 4d/	.	4gg 4b 4d 4G/	.	4G\	.	.	.
4G\	.	4gg 4b 4d/	.	4gg 4b 4d 4G/	.	4G\	-tis.	4dd\	-tis
!	!	!LO:TX:a:t=7:mod=	!	!LO:TX:b:t=7:mod=	!	!	!	!	!
4r	.	4r	.	4r	.	4r	.	4r	.
!	!	!	!	!LO:LB:g=original	!	!	!	!LO:LB:g=original	!
=8||	=8||	=8||	=8||	=8||	=8||	=8||	=8||	=8||	=8||
!!!OMD-mod: Andante
*k[f#]	*	*k[f#]	*	*k[]	*	*k[]	*	*k[]	*
*mk[]	*	*mk[]	*	*	*	*	*	*	*
*M3/8	*	*M3/8	*	*M3/8	*	*M3/8	*	*M3/8	*
!LO:TX:t=P:problem=przy kluczu błędnie F#:mod=	!	!LO:TX:t=P:problem=przy kluczu błędnie F#:mod=	!	!	!	!	!	!	!
!LO:TX:a:B:t=Lente:mod=	!	!LO:TX:a:B:t=andante:mod=	!	!LO:TX:b:t=Laudam(us):mod=	!	!	!	!	!
!LO:TX:b:t=Laudam(us):mod=	!	!LO:TX:b:t=Laudam(us):mod=	!	!LO:TX:t=P:problem=przy kluczu ff# ffn:mod=	!	!LO:TX:a:B:t=Tacet:mod=	!	!LO:TX:t=P:problem=niejednoznaczny zapis tonacji [przyjęto zgodnie z vl I]:mod=	!
!	!	!	!	!LO:TX:a:B:t=andante:mod=	!	!	!	!	!
8C/L	.	4.g/	.	4.cc\	.	4.ryy	.	1.r	.
8C/	.	.	.	.	.	.	.	.	.
8C/J	.	.	.	.	.	.	.	.	.
=9	=9	=9	=9	=9	=9	=9	=9	=9	=9
8C/L	.	4.dd\	.	4.ff\	.	4.ryy	.	.	.
8C/	.	.	.	.	.	.	.	.	.
8C/J	.	.	.	.	.	.	.	.	.
=10	=10	=10	=10	=10	=10	=10	=10	=10	=10
4.G\	.	8g/L	.	8ee\L	.	4.ryy	.	.	.
!	!	!LO:SIC:v:s=8fn	!	!	!	!	!	!	!
.	.	8f#/	.	8dd\	.	.	.	.	.
.	.	8e/J	.	8cc\J	.	.	.	.	.
=11	=11	=11	=11	=11	=11	=11	=11	=11	=11
!	!	!LO:SIC:v:s=8fn	!	!	!	!	!	!	!
4.GG/	.	8f#/L	.	8dd\L	.	4.ryy	.	.	.
.	.	8e/	.	8cc\	.	.	.	.	.
.	.	8d/J	.	8b\J	.	.	.	.	.
=12	=12	=12	=12	=12	=12	=12	=12	=12	=12
8C/L	.	4.e/	.	4.cc\	.	4.ryy	.	1.r	.
8GG/J	.	.	.	.	.	.	.	.	.
8CC/	.	.	.	.	.	.	.	.	.
=13	=13	=13	=13	=13	=13	=13	=13	=13	=13
!	!	!	!	!	!LO:DY:t= :mod=%s	!	!	!	!
!	!	!	!	!	!LO:MO:mod=!LO&colon;DY&colon;ed=brack	!	!	!	!
!	!	!LO:SIC:s=(16eeLL	!LO:DY:a:t=for	!	!null	!	!	!	!
4.C/	.	16ee\LL	f	(16ee\LL	f	4.ryy	.	.	.
.	.	16gg\	.	16gg\	.	.	.	.	.
.	.	16ff#X\	.	16ff#X\	.	.	.	.	.
!	!	!LO:SIC:s=16aaJ)	!	!	!	!	!	!	!
.	.	16aa\JJ	.	16aa\J)	.	.	.	.	.
!	!	!LO:SIC:s=8ddJ	!	!	!	!	!	!	!
.	.	8dd\	.	8ff#\J	.	.	.	.	.
!	!	!LO:LB:g=original	!	!	!	!	!	!	!
=14	=14	=14	=14	=14	=14	=14	=14	=14	=14
!	!	!LO:SIC:s=(16eeLL	!	!	!	!	!	!	!
4.C/	.	16ee\LL	.	(16ee\LL	.	4.ryy	.	.	.
.	.	16gg\	.	16gg\	.	.	.	.	.
.	.	16ff#X\	.	16ff#X\	.	.	.	.	.
!	!	!LO:SIC:s=16aaJ)	!	!	!	!	!	!	!
.	.	16aa\J	.	16aa\J)	.	.	.	.	.
.	.	8dd\J	.	8ff#\J	.	.	.	.	.
=15	=15	=15	=15	=15	=15	=15	=15	=15	=15
8G\	.	8ffn\L	.	8ffn\L	.	4.ryy	.	.	.
!	!	!LO:SIC:s=(16aaL	!	!	!	!	!	!	!
8r	.	16aa\L	.	(16aa\L	.	.	.	.	.
.	.	16ff\	.	16ff\	.	.	.	.	.
8r	.	16dd\	.	16dd\	.	.	.	.	.
!	!	!LO:SIC:s=16ccJJ)	!	!	!	!	!	!	!
.	.	16cc\JJ	.	16cc\JJ)	.	.	.	.	.
=16	=16	=16	=16	=16	=16	=16	=16	=16	=16
8G\L	.	4b/	.	4b\	.	4.ryy	.	2.r	.
!LO:SIC:v:s=8Fn	!	!	!	!	!	!	!	!	!
8F#\	.	.	.	.	.	.	.	.	.
8E\J	.	8g/	.	8cc\	.	.	.	.	.
!LO:LB:g=original	!	!	!	!	!	!	!	!	!
=17	=17	=17	=17	=17	=17	=17	=17	=17	=17
!LO:SIC:v:s=8Fn	!	!LO:TUP:problem=klamra łukowa:mod=	!	!LO:TUP:problem=klamra łukowa:mod=	!	!	!	!	!
8F#\L	.	24ee\LL	.	24ee\LL	.	4.ryy	.	.	.
.	.	24dd\	.	24dd\	.	.	.	.	.
.	.	24cc\JJ	.	24cc\JJ	.	.	.	.	.
8G\	.	4dd\	.	4dd\	.	.	.	.	.
8GG/J	.	.	.	.	.	.	.	.	.
=18	=18	=18	=18	=18	=18	=18	=18	=18	=18
!	!	!LO:SIC:s=8ccL	!	!	!	!	!	!	!
8C/L	.	8cc\	.	8cc/L	.	4.ryy	.	4.r	.
!	!	!LO:SIC:s=16gL	!	!	!	!	!	!	!
8GG/	.	16g/LL	.	16g/L	.	.	.	.	.
!	!	!LO:SIC:s=16eJ	!	!	!	!	!	!	!
.	.	16e/JJ	.	16e/J	.	.	.	.	.
!	!	!LO:SIC:s=8cJ	!	!	!	!	!	!	!
8CC/J	.	8c/	.	8c/J	.	.	.	.	.
!	!	!	!	!LO:LB:g=original	!	!	!	!	!
=19	=19	=19	=19	=19	=19	=19	=19	=19	=19
!	!	!	!LO:DY:a:t=Po.	!	!	!	!	!	!
!	!	!	!	!	!LO:DY:b:t=Pia	!	!	!	!
8C/L	.	4.g/	p	4.cc\	p	4.ryy	.	4.cc\	Lau-
8C/	.	.	.	.	.	.	.	.	.
8C/J	.	.	.	.	.	.	.	.	.
=20	=20	=20	=20	=20	=20	=20	=20	=20	=20
8C/L	.	4.dd\	.	4.ff\	.	4.ryy	.	4.ff\	-da-
8C/	.	.	.	.	.	.	.	.	.
8C/J	.	.	.	.	.	.	.	.	.
=21	=21	=21	=21	=21	=21	=21	=21	=21	=21
4.G\	.	8g/L	.	8ee\L	.	4.ryy	.	8ee\L	.
!	!	!LO:SIC:v:s=8fn	!	!	!	!	!	!	!
.	.	8f#/	.	8dd\	.	.	.	8dd\	.
.	.	8e/J	.	8cc\J	.	.	.	8cc\J	.
=22	=22	=22	=22	=22	=22	=22	=22	=22	=22
!	!	!LO:SIC:v:s=8fn	!	!	!	!	!	!	!
4.GG/	.	8f#/L	.	8dd\L	.	4.ryy	.	8dd\L	.
.	.	8e/	.	8cc\	.	.	.	8cc\J	.
!	!	!	!	!	!	!	!	!	!LO:MO:mod=-mus
.	.	8d/J	.	8b\J	.	.	.	8b\	-m(us)
=23	=23	=23	=23	=23	=23	=23	=23	=23	=23
8C/L	.	8e/L	.	8cc/L	.	4.ryy	.	4cc\	te
8GG/	.	8e/	.	16g/L	.	.	.	.	.
.	.	.	.	16e/J	.	.	.	.	.
8CC/J	.	8c/J	.	8c/J	.	.	.	8r	.
=24	=24	=24	=24	=24	=24	=24	=24	=24	=24
!LO:TX:t=P:problem=mixed beam:mod=	!	!	!	!	!	!	!	!	!
8C/L	.	8ee\L	.	8e/L	.	4.ryy	.	8ee\	te
8c\	.	8ee\	.	8aa\	.	.	.	8aa\	be-
8c\J	.	8ee\J	.	8gg\J	.	.	.	8gg\	-ne-
=25	=25	=25	=25	=25	=25	=25	=25	=25	=25
8c\L	4 2_	8dd\L	.	8ff#X\L	.	4.ryy	.	8.ff#X\	-di-
8c\	.	8dd\	.	8ff#\	.	.	.	.	.
.	.	.	.	.	.	.	.	16ff#\	-ci-
!	!	!	!	!	!	!	!	!	!LO:MO:mod=-mus
8B\J	6	8dd\J	.	8gg\J	.	.	.	8gg\	-m(us)
!	!	!LO:LB:g=original	!	!	!	!	!	!LO:LB:g=original	!
=26	=26	=26	=26	=26	=26	=26	=26	=26	=26
8B\L	6_	8dd\L	.	8dd\L	.	4.ryy	.	8dd\	te
8B\	.	8dd\	.	8gg\	.	.	.	8gg\	a-
8B\J	5	8dd\J	.	8ffn\J	.	.	.	8ffn\	-do-
=27	=27	=27	=27	=27	=27	=27	=27	=27	=27
8B\L	4_ 2_	8cc\L	.	8ee\L	.	4.ryy	.	4ee\	-ra-
8B\	.	8cc\	.	8ee\	.	.	.	.	.
!	!	!	!	!	!	!	!	!	!LO:MO:mod=-mus
8A\J	6	8cc\J	.	8ff\J	.	.	.	8ff\	-m(us)
!LO:LB:g=original	!	!	!	!	!	!	!	!	!
=28	=28	=28	=28	=28	=28	=28	=28	=28	=28
8A\L	6_	8cc\L	.	8cc\L	.	4.ryy	.	8cc\	glo-
8A\	.	8cc\	.	8ff\	.	.	.	8ff\	-ri-
8A\J	5	8cc\J	.	8ee\J	.	.	.	8ee\	-fi-
=29	=29	=29	=29	=29	=29	=29	=29	=29	=29
8A\L	4| 2_	8b\L	.	8dd#X\L	.	4.ryy	.	4dd#X\	-ca-
8A\	.	8b\	.	8dd#\	.	.	.	.	.
!	!	!	!	!	!	!	!	!	!LO:MO:mod=-mus
8G\J	6	8b\J	.	8ee\J	.	.	.	8ee\	-m(us)
=30	=30	=30	=30	=30	=30	=30	=30	=30	=30
8G\L	6_	8b\L	.	8b\L	.	4.ryy	.	8b\	glo-
8G\	.	8b\	.	8ee\	.	.	.	8ee\	-ri-
8G\J	5	8b\J	.	8ddn\J	.	.	.	8ddn\	-fi-
!	!	!	!	!LO:LB:g=original	!	!	!	!	!
=31	=31	=31	=31	=31	=31	=31	=31	=31	=31
8G\L	4|_ 2_	8a/L	.	8cc#X\L	.	4.ryy	.	4cc#X\	-ca-
8G\	.	8a/	.	8cc#\	.	.	.	.	.
!LO:SIC:v:s=8Fn\J	!	!	!	!	!	!	!	!	!LO:MO:mod=-mus
8F#\J	6	8a/J	.	8dd\J	.	.	.	8dd\	-m(us)
=32	=32	=32	=32	=32	=32	=32	=32	=32	=32
!LO:SIC:v:s=8Fn\L	!	!	!	!	!	!	!	!	!
8F#\L	6_	8a/L	.	8a\L	.	4.ryy	.	8a\	glo-
!LO:SIC:v:s=8Fn\	!	!	!	!	!	!	!	!	!
8F#\	.	8a/	.	8dd\	.	.	.	8dd\	-ri-
!LO:SIC:v:s=8Fn\J	!	!	!	!	!	!	!	!	!
8F#\J	5	8a/J	.	8ccn\J	.	.	.	8ccn\	-fi-
!	!	!	!	!	!	!	!	!LO:LB:g=original	!
!!LO:MO:ori
=33	=33	=33	=33	=33	=33	=33	=33	=33	=33
!LO:TX:t=P:problem=skreślony takt	!	!	!	!	!	!	!	!	!
!LO:SIC:v:s=8Fn\L	!	!	!	!	!	!	!	!LO:TX:t=P:problem=brak tekstu słownego w tt. 33-36	!
8F#\L	4_ 2_	8g/L	.	8b\L	.	4.ryy	.	4b\	.
!LO:SIC:v:s=8Fn\	!	!	!	!	!	!	!	!	!
8F#\	.	8g/	.	8b\	.	.	.	.	.
8E\J	6	8g/J	.	8cc\J	.	.	.	8cc\	.
=34	=34	=34	=34	=34	=34	=34	=34	=34	=34
4.G\	6 4	8g/L	.	8ee\L	.	4.ryy	.	8ee\	.
!	!	!LO:SIC:v:s=8fn	!	!	!	!	!	!	!
.	.	8f#/	.	8dd\	.	.	.	8dd\	.
.	.	8e/J	.	8cc\J	.	.	.	8cc\	.
=35	=35	=35	=35	=35	=35	=35	=35	=35	=35
!	!	!LO:SIC:v:s=8fn	!	!	!	!	!	!	!
4.GG/	7	8f#/L	.	8dd\L	.	4.ryy	.	8dd\L	.
.	.	8e/	.	8cc\	.	.	.	8cc\J	.
.	.	8d/J	.	8b\J	.	.	.	8b\	.
=36	=36	=36	=36	=36	=36	=36	=36	=36	=36
8C/L	.	8e/L	.	8cc/L	.	4.ryy	.	4cc\	.
8GG/	.	8g/	.	8g/	.	.	.	.	.
8CC/J	.	8c/J	.	8c/J	.	.	.	8r	.
!LO:LB:g=original	!	!	!	!	!	!	!	!	!
!!LO:MO:mod
!! =33	=33	=33	=33	=33	=33	=33	=33	=33	=33
!! 8Fn\L	4_ 2_	8g/L	.	8b\L	.	4.ryy	.	4b\	[-ca-
!! 8F\	.	8g/	.	8b\	.	.	.	.	.
!! 8E\J	6	8g/J	.	8cc\J	.	.	.	8cc\	-mus
!! =34	=34	=34	=34	=34	=34	=34	=34	=34	=34
!! 4.G\	6 4	8g/L	.	8ee\L	.	4.ryy	.	8ee\	glo-
!! .	.	8fn/	.	8dd\	.	.	.	8dd\	-ri-
!! .	.	8e/J	.	8cc\J	.	.	.	8cc\	-fi-
!! =35	=35	=35	=35	=35	=35	=35	=35	=35	=35
!! 4.GG/	7	8fn/L	.	8dd\L	.	4.ryy	.	8dd\L	-ca-
!! .	.	8e/	.	8cc\	.	.	.	8cc\J	.
!! .	.	8d/J	.	8b\J	.	.	.	8b\	-mus
!! =36	=36	=36	=36	=36	=36	=36	=36	=36	=36
!! 8C/L	.	8e/L	.	8cc/L	.	4.ryy	.	4cc\	te]
!! 8GG/	.	8g/	.	8g/	.	.	.	.	.
!! 8CC/J	.	8c/J	.	8c/J	.	.	.	8r	.
!! !LO:LB:g=original	!	!	!	!	!	!	!	!	!
!!LO:MO:end
=37	=37	=37	=37	=37	=37	=37	=37	=37	=37
!	!	!	!LO:DY:t= :mod=%s	!	!	!	!	!	!
!	!	!	!LO:MO:mod=!LO&colon;DY&colon;ed=brack	!	!	!	!	!	!
!	!	!	!null	!	!LO:DY:a:t=f.	!	!	!	!
4.C/	.	8cc\L	f	8cc\L	f	4.ryy	.	1.r	.
!	!	!LO:SIC:s=(16eeL	!	!	!	!	!	!	!
.	.	16ee\L	.	(16ee\L	.	.	.	.	.
!	!	!LO:SIC:s=16ddJ)	!	!	!	!	!	!	!
.	.	16dd\J	.	16dd\J)	.	.	.	.	.
.	.	8ee\J	.	8ee\J	.	.	.	.	.
=38	=38	=38	=38	=38	=38	=38	=38	=38	=38
!	!	!LO:SIC:s=(16eeLL	!	!	!	!	!	!	!
4.C/	.	16ee\LL	.	(16ee\LL	.	4.ryy	.	.	.
.	.	16gg\	.	16gg\	.	.	.	.	.
.	.	16ff#\	.	16ff#X\	.	.	.	.	.
!	!	!LO:SIC:s=16aaJ)	!	!	!	!	!	!	!
.	.	16aa\J	.	16aa\J)	.	.	.	.	.
.	.	8gg\J	.	8gg\J	.	.	.	.	.
!	!	!LO:LB:g=original	!	!	!	!	!	!	!
=39	=39	=39	=39	=39	=39	=39	=39	=39	=39
!	!	!LO:SIC:s=(16eeLL	!	!	!	!	!	!	!
4.C/	.	16ee\LL	.	(16ee\LL	.	4.ryy	.	.	.
.	.	16gg\	.	16gg\	.	.	.	.	.
.	.	16ff#\	.	16ff#X\	.	.	.	.	.
!	!	!LO:SIC:s=16aaJ)	!	!	!	!	!	!	!
.	.	16aa\J	.	16aa\J)	.	.	.	.	.
.	.	8gg\J	.	8gg\J	.	.	.	.	.
=40	=40	=40	=40	=40	=40	=40	=40	=40	=40
4.BB/	.	4.ffn\	.	4.ffn\	.	4.ryy	.	.	.
=41	=41	=41	=41	=41	=41	=41	=41	=41	=41
4.G\	.	8g/L	.	8ee\L	.	4.ryy	.	2.r	.
!	!	!LO:SIC:v:s=8fn	!	!	!	!	!	!	!
.	.	8f#/	.	8dd\	.	.	.	.	.
.	.	8e/J	.	8cc\J	.	.	.	.	.
=42	=42	=42	=42	=42	=42	=42	=42	=42	=42
!	!	!LO:SIC:v:s=8fn	!	!	!	!	!	!	!
4.GG/	.	8f#/L	.	8dd\L	.	4.ryy	.	.	.
.	.	8e/	.	8cc\	.	.	.	.	.
.	.	8d/J	.	8b\J	.	.	.	.	.
=43	=43	=43	=43	=43	=43	=43	=43	=43	=43
8C/L	.	8e/	.	8cc/L	.	4.ryy	.	4.r	.
8GG/	.	16g/LL	.	8c/J	.	.	.	.	.
.	.	16e/JJ	.	.	.	.	.	.	.
!LO:TX:a:t=36:mod=	!	!LO:TX:a:t=36:mod=	!	!LO:TX:a:t=36:mod=	!	!	!	!	!
8CC/J	.	8c/	.	8r	.	.	.	.	.
!	!	!LO:LB:g=original	!	!LO:LB:g=original	!	!	!	!	!
=44||	=44||	=44||	=44||	=44||	=44||	=44||	=44||	=44||	=44||
*k[f#c#]	*	*k[f#c#]	*	*k[f#c#]	*	*	*	*	*
*M4/4	*	*M4/4	*	*M4/4	*	*M4/4	*	*	*
*met(C)	*	*met(C)	*	*met(C)	*	*met(C)	*	*	*
!LO:TX:b:t=Quoniam.:mod=	!	!LO:TX:b:t=Quoniam:mod=	!	!LO:TX:b:t=Quoniam:mod=	!	!	!	!LO:TX:a:B:t=Quoniam Tacet:mod=	!
!LO:TX:a:B:t=moderato:mod=	!	!LO:TX:a:B:t=moderato:mod=	!	!LO:TX:a:B:t=moderato:mod=	!	!LO:TX:a:B:t=allo:mod=	!	!	!
1D	.	16d/LL	.	16dd\LL	.	1r	.	1ryy	.
.	.	16e/	.	16ee\	.	.	.	.	.
.	.	16f#/	.	16ff#\	.	.	.	.	.
!	!	!LO:TX:t=P:problem=♯ po nucie:mod=	!	!	!	!	!	!	!
.	.	16g#X/JJ	.	16gg#X\JJ	.	.	.	.	.
!	!	!LO:SIC:s=(16aLL	!	!	!	!	!	!	!
.	.	16a/LL	.	(16aa\LL	.	.	.	.	.
!	!	!LO:SIC:s=16g#)	!	!	!	!	!	!	!
.	.	16g#X/	.	16gg#X\)	.	.	.	.	.
.	.	16b/	.	16bb\	.	.	.	.	.
.	.	16a/JJ	.	16aa\JJ	.	.	.	.	.
!	!	!LO:SIC:s=(16aLL	!	!	!	!	!	!	!
.	.	16a/LL	.	(16aa\LL	.	.	.	.	.
!	!	!LO:SIC:s=16g#)	!	!	!	!	!	!	!
.	.	16g#/	.	16gg#X\)	.	.	.	.	.
.	.	16b/	.	16bb\	.	.	.	.	.
.	.	16a/JJ	.	16aa\JJ	.	.	.	.	.
!	!	!LO:SIC:s=(16aLL	!	!	!	!	!	!	!
.	.	16a/LL	.	(16aa\LL	.	.	.	.	.
!	!	!LO:SIC:s=16g#)	!	!	!	!	!	!	!
.	.	16g#/	.	16gg#X\)	.	.	.	.	.
.	.	16b/	.	16bb\	.	.	.	.	.
.	.	16a/JJ	.	16aa\JJ	.	.	.	.	.
!!LO:MO:ori
!LO:TX:t=P:problem=niepotrzebnie powtórzony fragment w vl II	!	!LO:TX:t=P:problem=niepotrzebnie powtórzony fragment	!	!LO:TX:t=P:problem=niepotrzebnie powtórzony fragment w vl II	!	!LO:TX:t=P:problem=niepotrzebnie powtórzony fragment w vl II	!	!LO:TX:t=P:problem=niepotrzebnie powtórzony fragment w vl II	!
4ryy	.	16a/LL	.	4ryy	.	4ryy	.	4ryy	.
.	.	16g#/	.	.	.	.	.	.	.
.	.	16b/	.	.	.	.	.	.	.
.	.	16a/JJ	.	.	.	.	.	.	.
!!LO:MO:end
=45	=45	=45	=45	=45	=45	=45	=45	=45	=45
4D/	.	8ff#\L	.	8ff#\L	.	1r	.	1ryy	.
.	.	8A/J	.	8a/J	.	.	.	.	.
4AA/	.	4ggn\	.	4ggn\	.	.	.	.	.
4D/	.	16ff#\LL	.	16ff#\LL	.	.	.	.	.
.	.	16ff#\	.	16ff#\	.	.	.	.	.
.	.	16ee\	.	16ee\	.	.	.	.	.
.	.	16dd\JJ	.	16dd\JJ	.	.	.	.	.
4AA/	.	16ee\LL	.	16ee\LL	.	.	.	.	.
.	.	16ee\	.	16ee\	.	.	.	.	.
.	.	16dd\	.	16dd\	.	.	.	.	.
.	.	16cc#\JJ	.	16cc#\JJ	.	.	.	.	.
=46	=46	=46	=46	=46	=46	=46	=46	=46	=46
4D/	.	4dd\	.	4dd\	.	1r	.	1ryy	.
4AA/	.	4gg\	.	4gg\	.	.	.	.	.
!	!	!LO:SIC:s=16ff#LL|	!	!LO:SIC:s=16ff#LL|	!	!	!	!	!
4D/	.	16ff#\LL	.	16ff#\LL	.	.	.	.	.
!	!	!LO:SIC:s=(16ff#	!	!	!	!	!	!	!
.	.	16ff#\	.	(16ff#\	.	.	.	.	.
.	.	16ee\	.	16ee\	.	.	.	.	.
!	!	!LO:SIC:s=16ddJJ)	!	!	!	!	!	!	!
.	.	16dd\JJ	.	16dd\JJ)	.	.	.	.	.
!	!	!LO:SIC:s=16eeLL|	!	!	!	!	!	!	!
4AA/	.	16ee\LL	.	16ee\LL|	.	.	.	.	.
!	!	!LO:SIC:s=(16ee	!	!	!	!	!	!	!
.	.	16ee\	.	(16ee\	.	.	.	.	.
.	.	16dd\	.	16dd\	.	.	.	.	.
!	!	!LO:SIC:s=16cc#JJ)	!	!	!	!	!	!	!
.	.	16cc#\JJ	.	16cc#\JJ)	.	.	.	.	.
!	!	!LO:LB:g=original	!	!	!	!	!	!	!
=47	=47	=47	=47	=47	=47	=47	=47	=47	=47
!	!	!	!LO:DY:t= :mod=%s	!	!	!	!	!	!
!	!	!	!LO:MO:mod=!LO&colon;DY&colon;ed=brack	!	!	!	!	!	!
!	!	!LO:TX:t=P:problem=mixed beam:mod=	!null	!LO:TX:t=P:problem=mixed beam:mod=	!LO:DY:a:t=P.	!	!	!	!
1D	.	16dd\LL	p	16dd\LL	p	16D\LL	Quo-	1ryy	.
.	.	16d/	.	16d/	.	16E\JJ	.	.	.
.	.	16d/	.	16d/	.	16F#\LL	-ni-	.	.
.	.	16d/JJ	.	16d/JJ	.	16G#X\JJ	.	.	.
!	!	!	!	!LO:LB:g=original	!	!	!	!	!
.	.	16d/LL	.	16d/LL	.	8A\	-am	.	.
.	.	16d/	.	16d/	.	.	.	.	.
.	.	16d/	.	16d/	.	8A\	tu	.	.
.	.	16d/JJ	.	16d/JJ	.	.	.	.	.
.	.	16d/LL	.	16d/LL	.	4A\	ſo-	.	.
.	.	16d/	.	16d/	.	.	.	.	.
.	.	16d/	.	16d/	.	.	.	.	.
.	.	16d/JJ	.	16d/JJ	.	.	.	.	.
.	.	16d/LL	.	16d/LL	.	4A\	-lus	.	.
.	.	16d/	.	16d/	.	.	.	.	.
.	.	16d/	.	16d/	.	.	.	.	.
.	.	16d/JJ	.	16d/JJ	.	.	.	.	.
!LO:LB:g=original	!	!	!	!	!	!	!	!	!
=48	=48	=48	=48	=48	=48	=48	=48	=48	=48
4D/	.	16d/LL	.	16d/LL	.	8A\L	ſo-	1ryy	.
.	.	16d/	.	16d/	.	.	.	.	.
.	.	16d/	.	16d/	.	16F#\L	.	.	.
.	.	16d/JJ	.	16d/JJ	.	16D\JJ	.	.	.
4AA/	.	16A/LL	.	16A/LL	.	8G\L	.	.	.
.	.	16A/	.	16A/	.	.	.	.	.
.	.	16A/	.	16A/	.	16E\L	.	.	.
.	.	16A/JJ	.	16A/JJ	.	16C#\JJ	.	.	.
2D/	.	16d/LL	.	16d/LL	.	4D\	-lus	.	.
.	.	16d/	.	16d/	.	.	.	.	.
.	.	16d/	.	16d/	.	.	.	.	.
.	.	16d/JJ	.	16d/JJ	.	.	.	.	.
.	.	16d/LL	.	16d/LL	.	4G\	tu	.	.
.	.	16d/	.	16d/	.	.	.	.	.
.	.	16d/	.	16d/	.	.	.	.	.
.	.	16d/JJ	.	16d/JJ	.	.	.	.	.
=49	=49	=49	=49	=49	=49	=49	=49	=49	=49
4D/	.	4d/	.	4d/	.	8A\L	ſo-	1ryy	.
.	.	.	.	.	.	16F#\L	.	.	.
.	.	.	.	.	.	16D\JJ	.	.	.
4AA/	.	4A/	.	4A/	.	8G\L	.	.	.
.	.	.	.	.	.	16E\L	.	.	.
.	.	.	.	.	.	16C#\JJ	.	.	.
!	!	!LO:SIC:s=(16dLL	!	!	!	!	!	!	!
2D/	.	16d/LL	.	(16dd\LL	.	2D/	-lus	.	.
.	.	16c#/	.	16cc#\	.	.	.	.	.
.	.	16e/	.	16ee\	.	.	.	.	.
!	!	!LO:SIC:s=16dJJ)	!	!	!	!	!	!	!
.	.	16d/JJ	.	16dd\JJ)	.	.	.	.	.
!	!	!LO:SIC:s=(16dLL	!	!	!	!	!	!	!
.	.	16d/LL	.	(16dd\LL	.	.	.	.	.
.	.	16c#/	.	16cc#\	.	.	.	.	.
.	.	16e/	.	16ee\	.	.	.	.	.
!	!	!LO:SIC:s=16dJJ)	!	!	!	!	!	!	!
.	.	16d/JJ	.	16dd\JJ)	.	.	.	.	.
!	!	!	!	!	!	!LO:LB:g=original	!	!	!
=50	=50	=50	=50	=50	=50	=50	=50	=50	=50
!	!	!	!	!	!	!LO:TX:a:t=2:mod=	!	!	!
8D\L	.	8d/L	.	8d/L	.	0r	.	1ryy	.
16D\L	.	16dd\L	.	16dd\L	.	.	.	.	.
16E\JJ	.	16ee\JJ	.	16ee\JJ	.	.	.	.	.
8Fn\L	.	8ffn\L	.	8ffn\L	.	.	.	.	.
16E\L	.	16ee\L	.	16ee\L	.	.	.	.	.
16D\JJ	.	16dd\JJ	.	16dd\JJ	.	.	.	.	.
8D\L	.	8dd\L	.	8dd\L	.	.	.	.	.
8A\J	.	8aa\J	.	8aa\J	.	.	.	.	.
4A\	.	4aa\	.	4aa\	.	.	.	.	.
!	!	!LO:LB:g=original	!	!LO:LB:g=original	!	!	!	!	!
=51	=51	=51	=51	=51	=51	=51	=51	=51	=51
8A\L	.	8aa\L	.	8aa\L	.	.	.	1ryy	.
16Fn\L	.	16ffn\L	.	16ffn\L	.	.	.	.	.
16A\JJ	.	16aa\JJ	.	16aa\JJ	.	.	.	.	.
8G\L	.	8gg\L	.	8gg\L	.	.	.	.	.
16E\L	.	16ee\L	.	16ee\L	.	.	.	.	.
16G\JJ	.	16gg\JJ	.	16gg\JJ	.	.	.	.	.
16Fn\LL	.	16ffn\LL	.	16ffn\LL	.	.	.	.	.
16E\	.	16ee\	.	16ee\	.	.	.	.	.
16D\	.	16dd\	.	16dd\	.	.	.	.	.
16C#X\JJ	.	16cc#X\JJ	.	16cc#\JJ	.	.	.	.	.
4D/	.	4dd\	.	4dd\	.	.	.	.	.
=52	=52	=52	=52	=52	=52	=52	=52	=52	=52
1AA	.	16A/LL	.	16A/LL	.	16AA/LL	quo-	1ryy	.
.	.	16A/	.	16A/	.	16BB/JJ	.	.	.
.	.	16A/	.	16A/	.	16C#/LL	-ni-	.	.
.	.	16A/JJ	.	16A/JJ	.	16D/JJ	.	.	.
.	.	16A/LL	.	16A/LL	.	8E\	-am	.	.
.	.	16A/	.	16A/	.	.	.	.	.
.	.	16A/	.	16A/	.	8F#\	tu	.	.
.	.	16A/JJ	.	16A/JJ	.	.	.	.	.
.	.	16A/LL	.	16A/LL	.	8G\L	ſo-	.	.
.	.	16A/	.	16A/	.	.	.	.	.
.	.	16A/	.	16A/	.	8F#\J	.	.	.
.	.	16A/JJ	.	16A/JJ	.	.	.	.	.
.	.	16A/LL	.	16A/LL	.	4E\	-lus	.	.
.	.	16A/	.	16A/	.	.	.	.	.
.	.	16A/	.	16A/	.	.	.	.	.
.	.	16A/JJ	.	16A/JJ	.	.	.	.	.
=53	=53	=53	=53	=53	=53	=53	=53	=53	=53
2AA/	.	16A/LL	.	16A/LL	.	8.G\	Do-	1ryy	.
.	.	16A/	.	16A/	.	.	.	.	.
.	.	16A/	.	16A/	.	.	.	.	.
.	.	16A/JJ	.	16A/JJ	.	16F#\	-mi-	.	.
!	!	!	!	!	!	!	!LO:MO:mod=-nus	!	!
.	.	16A/LL	.	16A/LL	.	4E\	-n(us)	.	.
.	.	16A/	.	16A/	.	.	.	.	.
.	.	16A/	.	16A/	.	.	.	.	.
.	.	16A/JJ	.	16A/JJ	.	.	.	.	.
4D\	.	4d/	.	4d/	.	8A\	ſo-	.	.
.	.	.	.	.	.	16F#\LL	-lus	.	.
.	.	.	.	.	.	16D\JJ	.	.	.
4A\	.	4A/	.	4A/	.	8G\L	al-	.	.
.	.	.	.	.	.	16E\L	.	.	.
.	.	.	.	.	.	16C#\JJ	.	.	.
!LO:LB:g=original	!	!	!	!	!	!	!	!	!
=54	=54	=54	=54	=54	=54	=54	=54	=54	=54
1D	.	4d/	.	4d/	.	8.D\	-tiſ-	1ryy	.
.	.	.	.	.	.	16A\	-si-	.	.
!	!	!	!	!	!	!	!LO:MO:mod=-mus	!	!
.	.	4d/	.	4d/	.	4D\	-m(us)	.	.
.	.	2d/	.	2d/	.	16d\LL	Je-	.	.
.	.	.	.	.	.	16c#\JJ	.	.	.
.	.	.	.	.	.	16e\LL	.	.	.
.	.	.	.	.	.	16d\JJ	.	.	.
!	!	!	!	!	!	!LO:LB:g=original	!	!	!
.	.	.	.	.	.	4d\	-su	.	.
=55	=55	=55	=55	=55	=55	=55	=55	=55	=55
2D\	.	2d/	.	2d/	.	16d\LL	Je-	1ryy	.
.	.	.	.	.	.	16c#\JJ	.	.	.
.	.	.	.	.	.	16e\LL	.	.	.
.	.	.	.	.	.	16d\JJ	.	.	.
.	.	.	.	.	.	16d\LL	.	.	.
.	.	.	.	.	.	16c#\JJ	.	.	.
.	.	.	.	.	.	16e\LL	.	.	.
.	.	.	.	.	.	16d\JJ	.	.	.
4D\	.	4d/	.	4d/	.	8d\L	.	.	.
.	.	.	.	.	.	16c#\L	.	.	.
.	.	.	.	.	.	16B\JJ	.	.	.
8r	.	8r	.	8r	.	8A\L	-su	.	.
8AA/	.	8A/	.	8A/	.	8G\J	.	.	.
!	!	!LO:LB:g=original	!	!LO:LB:g=original	!	!	!	!	!
=56	=56	=56	=56	=56	=56	=56	=56	=56	=56
8D\L	.	8d/L	.	8d/L	.	(4F#\	Chri-	1ryy	.
8F#X\	.	8f#/	.	8f#/	.	.	.	.	.
8G\	.	8g/	.	8g/	.	4E\)	.	.	.
8A\J	.	8a/J	.	8a/J	.	.	.	.	.
8d\L	.	8dd\L	.	8dd\L	.	4D\	-ste	.	.
16A\L	.	16a\L	.	16a\L	.	.	.	.	.
16F#\JJ	.	16f#\JJ	.	16f#\JJ	.	.	.	.	.
8D\	.	8d/	.	8d/	.	4r	.	.	.
8r	.	8r	.	8r	.	.	.	.	.
=57	=57	=57	=57	=57	=57	=57	=57	=57	=57
!	!	!	!LO:DY:t= :mod=%s	!	!	!	!	!	!
!	!	!	!LO:MO:mod=!LO&colon;DY&colon;ed=brack	!	!	!	!	!	!
!	!	!	!null	!	!LO:DY:a:t=f.	!	!	!	!
1D	.	16d/LL	f	16dd\LL	f	0r	.	1ryy	.
.	.	16e/	.	16ee\	.	.	.	.	.
.	.	16f#/	.	16ff#\	.	.	.	.	.
.	.	16g#X/JJ	.	16gg#X\JJ	.	.	.	.	.
.	.	16a/LL	.	16aa\LL	.	.	.	.	.
.	.	16g#X/	.	16gg#X\	.	.	.	.	.
.	.	16b/	.	16bb\	.	.	.	.	.
.	.	16a/JJ	.	16aa\JJ	.	.	.	.	.
.	.	16a/LL	.	16aa\LL	.	.	.	.	.
.	.	16g#/	.	16gg#X\	.	.	.	.	.
.	.	16b/	.	16bb\	.	.	.	.	.
.	.	16a/JJ	.	16aa\JJ	.	.	.	.	.
.	.	16a/LL	.	16aa\LL	.	.	.	.	.
.	.	16g#/	.	16gg#X\	.	.	.	.	.
.	.	16b/	.	16bb\	.	.	.	.	.
.	.	16a/JJ	.	16aa\JJ	.	.	.	.	.
=58	=58	=58	=58	=58	=58	=58	=58	=58	=58
4D/	.	8ff#\L	.	8ff#\L	.	.	.	1ryy	.
.	.	8A/J	.	8a\J	.	.	.	.	.
4AA/	.	4ggn\	.	4ggn\	.	.	.	.	.
4D/	.	8ff#\L	.	8ff#\L	.	.	.	.	.
.	.	16ee\L	.	16ee\L	.	.	.	.	.
.	.	16dd\JJ	.	16dd\JJ	.	.	.	.	.
!LO:TX:t=P:problem=mixed beam:mod=	!	!	!	!	!	!	!	!	!
8A\L	.	8ee\L	.	8ee\L	.	.	.	.	.
8AA\J	.	16dd\L	.	16dd\L	.	.	.	.	.
.	.	16cc#\JJ	.	16cc#\JJ	.	.	.	.	.
=59	=59	=59	=59	=59	=59	=59	=59	=59	=59
8D\L	.	8ff#L 8a 8d/	.	8ff#L 8a 8d/	.	1r	.	1ryy	.
8D\	.	8ff# 8a 8d/	.	8ff# 8a 8d/	.	.	.	.	.
8D\	.	8ff# 8a 8d/	.	8ff# 8a 8d/	.	.	.	.	.
8D\J	.	8ff#J 8a 8d/	.	8ff#J 8a 8d/	.	.	.	.	.
4D\	.	4ff# 4a 4d/	.	4ff# 4a 4d/	.	.	.	.	.
!LO:TX:a:t=16:mod=	!	!LO:TX:a:t=16:mod=	!	!LO:TX:a:t=16:mod=	!	!	!	!	!
4r	.	4r	.	4r	.	.	.	.	.
!LO:LB:g=original	!	!LO:LB:g=original	!	!LO:LB:g=original	!	!LO:LB:g=original	!	!LO:LB:g=original	!
=60||	=60||	=60||	=60||	=60||	=60||	=60||	=60||	=60||	=60||
!!!OMD-mod: Allabreve
*k[f#]	*	*k[f#]	*	*k[f#]	*	*k[f#]	*	*k[f#]	*
*M2/2	*	*M2/2	*	*M2/2	*	*M2/2	*	*M2/2	*
*met(C|)	*	*met(C|)	*	*met(2)	*	*met(C|)	*	*met(C|)	*
!	!	!	!	!	!	!LO:TX:t=P:problem=metrum zapisane w odbiciu lustrzanym:mod=	!	!LO:TX:t=P:problem=metrum zapisane w odbiciu lustrzanym:mod=	!
!LO:TX:b:t=Cum ſancto.:mod=	!	!LO:TX:t=P:problem=metrum zapisane w odbiciu lustrzanym:mod=	!	!LO:TX:t=P:problem=oznaczenie metryczne przekreślona 2:mod=	!	!	!	!	!
!LO:TX:t=P:problem=metrum zapisane w odbiciu lustrzanym:mod=	!	!LO:TX:a:B:t=allabreve:mod=	!	!LO:TX:a:B:t=allabreve:mod=	!	!	!	!	!
!LO:TX:a:B:t=allabreve:mod=	!	!LO:TX:b:t=Cum ſancto.:mod=	!	!LO:TX:b:t=Cum ſancto.:mod=	!	!LO:TX:a:B:t=allabreve:mod=	!	!LO:TX:a:B:t=allo:mod=	!
!	!	!	!	!	!	!	!	!LO:TX:a:B:t=allabr&colon;:mod=	!LO:MO:mod=Cum
1G	.	2b\	.	2gg\	.	2G\	Cum	2b\	Cu(m)
!	!	!	!	!	!	!	!LO:MO:mod=san-	!	!
.	.	2dd\	.	2bb\	.	4d\	ſ(an)-	4dd\	ſan-
.	.	.	.	.	.	4d\	-cto	4dd\	-cto
=61	=61	=61	=61	=61	=61	=61	=61	=61	=61
2G\	.	4dd\	.	4bb\	.	4d\	ſpi-	4dd\	ſpi-
.	.	8cc\L	.	8aa\L	.	8c\L	-ri-	8cc\L	-ri-
.	.	8b\J	.	8gg\J	.	8B\J	.	8b\J	.
2D\	.	4cc\	.	4aa\	.	4c\	-tu	4cc\	-tu
.	.	8b\L	.	8gg\L	.	8B\L	in	8b\L	in
.	.	8a\J	.	8ff#\J	.	8A\J	.	8a\J	.
=62	=62	=62	=62	=62	=62	=62	=62	=62	=62
1GG	.	4b\	.	4gg\	.	4B\	glo-	4b\	glo-
.	.	4cc\	.	4aa\	.	4c\	-ri-	4cc\	-ri-
.	.	2dd\	.	2bb\	.	2d\	-a	2dd\	-a
=63	=63	=63	=63	=63	=63	=63	=63	=63	=63
2GG/	.	4dd\	.	4bb\	.	4d\	De-	4dd\	De-
.	.	8cc\L	.	8aa\L	.	8c\L	-i	8cc\L	-i
.	.	8b\J	.	8gg\J	.	8B\J	.	8b\J	.
2D/	.	4cc\	.	4aa\	.	4c\	Pa-	4cc\	Pa-
.	.	8b\L	.	8gg\L	.	8B\L	-tris	8b\L	-tris
.	.	8a\J	.	8ff#\J	.	8A\J	.	8a\J	.
=64	=64	=64	=64	=64	=64	=64	=64	=64	=64
4D\	.	4b\	.	4gg\	.	(4G\	a-	(4b\	a-
4DD/	.	4a\	.	4ff#\	.	4F#\)	.	4a\)	.
2GG/	.	4b\	.	4gg\	.	4G\	-men	4b\	-men
.	.	4r	.	4r	.	4r	.	4r	.
!	!	!	!	!	!	!LO:LB:g=original	!	!LO:LB:g=original	!
=65	=65	=65	=65	=65	=65	=65	=65	=65	=65
1GG	.	4g/	.	4g/	.	4G\	a-	4g\	a-
.	.	4b/	.	4b/	.	4B\	.	4b\	.
.	.	2dd\	.	2dd\	.	2d\	-men	2dd\	-men
=66	=66	=66	=66	=66	=66	=66	=66	=66	=66
*	*	*	*	*	*	*	*ij	*	*ij
1GG	.	4g/	.	4g/	.	4G\	a-	4g\	a-
.	.	4cc\	.	4cc\	.	4c\	.	4cc\	.
.	.	2ee\	.	2ee\	.	2e\	-men	2ee\	-men
*	*	*	*	*	*	*	*Xij	*	*Xij
!	!	!LO:LB:g=original	!	!LO:LB:g=original	!	!	!	!	!
=67	=67	=67	=67	=67	=67	=67	=67	=67	=67
4G\	.	4bb\	.	4bb\	.	4G\	a-	4g\	a-
8A\L	.	8aa\L	.	8aa\L	.	8A\L	.	8a\L	.
8B\J	.	8gg\J	.	8gg\J	.	8B\J	.	8b\J	.
*Xtuplet	*	*	*	*	*	*	*	*	*
12G\L	.	4bb\	.	4bb\	.	4G\	.	4g\	.
12A\	.	.	.	.	.	.	.	.	.
12B\J	.	.	.	.	.	.	.	.	.
12G\L	.	8aa\L	.	8aa\L	.	8A\L	.	8a\L	.
12A\	.	.	.	.	.	.	.	.	.
.	.	8gg\J	.	8gg\J	.	8B\J	.	8b\J	.
12B\J	.	.	.	.	.	.	.	.	.
=68	=68	=68	=68	=68	=68	=68	=68	=68	=68
4G\	.	4bb\	.	4bb\	.	4G\	.	4g\	.
8A\L	.	8aa\L	.	8aa\L	.	8A\L	.	8a\L	.
8B\J	.	8gg\J	.	8gg\J	.	8B\J	.	8b\J	.
4G\	.	4bb\	.	4bb\	.	4G\	.	4g\	.
8A\L	.	8aa\L	.	8aa\L	.	8A\L	.	8a\L	.
8B\J	.	8gg\J	.	8gg\J	.	8B\J	.	8b\J	.
!LO:LB:g=original	!	!	!	!	!	!	!	!	!
=69	=69	=69	=69	=69	=69	=69	=69	=69	=69
4G\	.	4gg\	.	4gg\	.	4G\	.	4gg\	.
4D\	.	4dd\	.	4dd\	.	4D\	.	4dd\	.
4BB/	.	4b\	.	4b\	.	4BB\	.	4b\	.
4D\	.	4dd\	.	4dd\	.	4D\	.	4dd\	.
=70	=70	=70	=70	=70	=70	=70	=70	=70	=70
4BB/	.	4b\	.	4b\	.	4B\	.	4b\	.
4D\	.	4dd\	.	4dd\	.	4d\	.	4dd\	.
2GG/	.	4g/	.	2g/	.	2G\	-men	2g\	-men
.	.	4r	.	.	.	.	.	.	.
=71	=71	=71	=71	=71	=71	=71	=71	=71	=71
4r	.	4gg 4b 4d 4G/	.	4gg 4b 4d 4G/	.	4r	.	4r	.
4B\	.	4b\	.	4b\	.	4B\	a-	4b\	a-
4c\	.	4cc\	.	4cc\	.	4c\	.	4cc\	.
4d\	.	4dd\	.	4dd\	.	4d\	.	4dd\	.
!	!	!	!	!	!	!LO:LB:g=original	!	!LO:LB:g=original	!
=72	=72	=72	=72	=72	=72	=72	=72	=72	=72
4G\	.	4gg 4b 4d/	.	4gg 4b 4d/	.	4G\	-men	4g\	-men
4B\	.	4b\	.	4b\	.	4B\	a-	4b\	a-
4c\	.	4cc\	.	4cc\	.	4c\	.	4cc\	.
4d\	.	4dd\	.	4dd\	.	4d\	.	4dd\	.
!!LO:MO:ori
=73	=73	=73	=73	=73	=73	=73	=73	=73	=73
2G\	.	4gg 4b 4d/	.	4gg 4b 4d 4G/	.	2G\	-men	4g\	-men
.	.	4r	.	4r	.	.	.	4r	.
!LO:TX:a:t=14	!	!LO:TX:a:t=14	!	!LO:TX:a:t=14	!	!	!	!	!
2rBB	.	2rg	.	2rg	.	2r	.	2re	.
!!LO:MO:mod
!! =73	=73	=73	=73	=73	=73	=73	=73	=73	=73
!! 4G\	.	4gg 4b 4d/	.	4gg 4b 4d 4G/	.	4G\	-men	4g\	-men
!! 4r	.	4r	.	4r	.	4r	.	4r	.
!! 2rBB	.	2rg	.	2rg	.	2r	.	2re	.
!!LO:MO:end
==	==	==	==	==	==	==	==	==	==
*-	*-	*-	*-	*-	*-	*-	*-	*-	*-
!!!system-decoration: [(s1,s2)][(s3,s4)]s5
!!!RDF**kern: | = vertical stroke
!!LO:MO:mod=ori
!!!RDF**kern: > = above
!!!RDF**kern: < = below
!!LO:MO:mod=end
!!!filter-modern: sic -sq | shed -e "s/LO:DY:(a|b|rj)/LO:dy:$1/L" | shed -k -e "s/[<>]//g" | autostem -r | tie -s | shed -e "s/yy//" | humtr -p | modori -m
!!!ENC: Andrzej Kubiczek
!!!END: 2020-12-13
!!!ENC: Natalia Wrzos
!!!END: 2022-03-25
!!!ENC-modern: Marta Lawrence
!!!END-modern: 2022-06-20
!!!YEC: Copyright 2022 Narodowy Instytut Fryderyka Chopina (https://polishscores.org)
!!!YEM: License CC-BY-4.0 (https://creativecommons.org/licenses/by/4.0)
